X:1
T:Holy Is the Church of God
T:Holy Is the Church of God
T:Daniel O. Teasley
T:D. O. T.
T:PUBLIC DOMAIN
T:PUBLIC DOMAIN
C:Daniel O. Teasley
Z:D. O. T.
Z:PUBLIC DOMAIN
%%score ( 1 2 ) ( 3 4 )
L:1/8
Q:1/4=100
M:4/4
K:Db
V:1 treble nm="Treble"
V:2 treble 
V:3 bass nm="Bass"
V:4 bass 
V:1
 [Fd]2 [FA]2 [DF]2 D2 | [FA]3 [FA] [FA]2 [DG]2 | [DF]2 [CE]2 D2 [CE]2 | [DF]6 [CG]2 | %4
w: 1.~Ho- ly is the|church of God, And|ho- ly is her|Lord; Her|
w: 2.~Ho- ly is the|church of God: If|you would en- ter|in, You|
w: 3.~Ho- ly is the|church of God, And|ho- ly we must|be, If|
w: 4.~Ho- ly is the|church of God; It|is her Mas- ter’s|will; And|
 [DF]2 [DE]2 D2 [DE]2 | [DF]2 [CG]2 [DA]2 [GB]2 | [FA]2 [Fd]2 [Fd]2 [Gc]2 | [Fd]6 z2 || %8
w: chil- dren all are|born of God, They|stand up- on His|word.|
w: must be cleansed in|Je- sus’ blood From|eve- ry stain of|sin.|
w: we would share her|bless- ings here, Her|fi- nal glo- ry|see.|
w: while the end- less|ag- es roll, She|shall be ho- ly|still.|
"^Refrain" [FA]2 [FA]2 [FA]2 [FA]2 | [Fd]3 [Fd] [Fd]4 |!p! D2 D2 [DE]2 D2 | [DF]6 z2 | %12
w: Ho- ly is the|church of God,|Pure in Je- sus’|blood;|
w: ||||
w: ||||
w: ||||
 [CG]2 [CG]2 [DF]2 [CE]2 | [DF]3 [CG] [DA]4 | [DB]2 [CA]2 [D=G]2 E2 | [EA]6 z2 | d2 A2 F2 D2 | %17
w: Ho- ly is the|bride of Christ,|Ho- ly is her|Lord.|Ho- ly, ho- ly,|
w: |||||
w: |||||
w: |||||
 [DA]4 [DA]4 | B2 A2 G2 F2 | [CE]6 z2 |!<(! D2 [DE]2 [DF]2 [EG]2 | [FA]2!<)! [Fd]2 [FA]2 [GB]2 | %22
w: ho- ly,|Christ, the Fa- ther’s|Son;|Ho- ly is His|bride the church, Blest|
w: |||||
w: |||||
w: |||||
 [FA]2 [Fd]2"^accel." [Fd]2 [Gc]2 | [Fd]6 z2 |] %24
w: ho- ly two made|one.|
w: ||
w: ||
w: ||
V:2
 z4 z2 D2 | x8 | z4 D2 z2 | x8 | z4 D2 z2 | x8 | x8 | x8 || x8 | x8 | D2 D2 z2 D2 | x8 | x8 | x8 | %14
 z4 z2 E2 | x8 | d2 A2 F2 D2 | x8 | B2 A2 G2 F2 | x8 | D2 z2 z4 | x8 | x8 | x8 |] %24
V:3
 [D,A,]2 [D,A,]2 [D,A,]2 [D,F,]2 | [D,D]3 [D,D] [D,D]2 [G,,G,B,]2 | %2
 [A,,A,]2 [A,,G,]2 [B,,F,]2 [A,,A,]2 | [D,A,]6 [A,,A,]2 | [D,A,]2 [D,G,]2 [D,F,]2 [D,G,]2 | %5
 [D,A,]2 [E,A,]2 [F,A,]2 [G,D]2 | [A,D]2 A,2 [A,,A,]2 [A,,A,]2 | [D,A,]6 z2 || %8
 [D,D]2 [D,D]2 [F,D]2 [A,D]2 | [D,A,]3 [D,A,] [D,A,]4 | [D,F,]2 [D,F,]2 [D,G,]2 [D,F,]2 | %11
 [D,A,]6 z2 | [A,,A,]2 [A,,A,]2 [A,,A,]2 [A,,A,]2 | [D,A,]3 [E,A,] [F,A,]4 | %14
 [E,=G,]2 [E,A,]2 [E,B,]2 [G,D]2 | [A,C]6 z2 | D2 A,2 F,2 D,2 | [D,F,]4 [D,F,]4 | G,2 F,2 E,2 D,2 | %19
 [A,,A,]6 z2 | [D,F,]2 [D,G,]2 [D,A,]2 [D,A,]2 | [D,D]2 [D,A,]2 [D,D]2 [G,D]2 | %22
 [A,D]2 A,2"^accel." [A,,A,]2 [A,,A,]2 | [D,A,]6 z2 |] %24
V:4
 x8 | x8 | x8 | x8 | x8 | x8 | z2 A,2 z4 | x8 || x8 | x8 | x8 | x8 | x8 | x8 | x8 | x8 | %16
 D2 A,2 F,2 D,2 | x8 | G,2 F,2 E,2 D,2 | x8 | x8 | x8 | z2 A,2 z4 | x8 |] %24

